resources/svg/twitter-o.svg

<svg xmlns="http://www.w3.org/2000/svg" viewBox="0 0 15 15" fill="none"><path d="M14.4784 1.5L14.9773 1.46692C14.964 1.26635 14.8319 1.09324 14.6419 1.0275C14.452 0.961755 14.2411 1.01616 14.1067 1.1656L14.4784 1.5ZM13.9799 4.4589C13.9799 4.18276 13.7561 3.9589 13.4799 3.9589C13.2038 3.9589 12.9799 4.18276 12.9799 4.4589H13.9799ZM7.4892 4.5411H6.9892V4.5411L7.4892 4.5411ZM7.4892 5.5L7.9892 5.5V5.5L7.4892 5.5ZM0.5 12.5V12C0.279732 12 0.0854109 12.1441 0.0215057 12.3549C-0.0423996 12.5657 0.0391667 12.7935 0.222353 12.9158L0.5 12.5ZM1.49846 1.5L1.96671 1.32468C1.89694 1.13834 1.72333 1.0111 1.52464 1.00069C1.32594 0.990268 1.13998 1.09865 1.05111 1.27667L1.49846 1.5ZM5.49228 10.5L5.84611 10.8533C5.96847 10.7307 6.0187 10.5536 5.97889 10.385C5.93907 10.2165 5.81488 10.0806 5.65062 10.0257L5.49228 10.5ZM12.7161 2.47338L12.3452 2.80872L12.5253 3.00797L12.7909 2.96774L12.7161 2.47338ZM13.9795 1.53308C14.0311 2.31088 13.9833 2.78312 13.8573 3.13855C13.7349 3.48354 13.5213 3.76789 13.134 4.13899L13.8259 4.86101C14.2637 4.4415 14.6025 4.02878 14.7997 3.47288C14.9932 2.92744 15.0322 2.29498 14.9773 1.46692L13.9795 1.53308ZM13.9799 5.18749V4.4589H12.9799V5.18749H13.9799ZM6.9892 4.5411L6.9892 5.5L7.9892 5.5L7.9892 4.5411L6.9892 4.5411ZM6.9892 5.5L6.9892 6L7.9892 6L7.9892 5.5L6.9892 5.5ZM10.5256 1C8.57177 1 6.9892 2.58613 6.9892 4.5411H7.9892C7.9892 3.13696 9.12551 2 10.5256 2V1ZM12.9799 5.18749C12.9799 9.50295 9.48717 13 5.18026 13V14C10.0409 14 13.9799 10.0538 13.9799 5.18749H12.9799ZM1.0302 1.67532C1.57358 3.12656 3.61426 6 7.4892 6V5C4.17524 5 2.42179 2.54011 1.96671 1.32468L1.0302 1.67532ZM1.05111 1.27667C0.00437924 3.37336 -0.156896 5.40694 0.60386 7.13861C1.36288 8.86632 2.99598 10.1937 5.33395 10.9743L5.65062 10.0257C3.49554 9.30626 2.13326 8.13368 1.5194 6.73639C0.907282 5.34306 0.995621 3.62664 1.94581 1.72333L1.05111 1.27667ZM5.13845 10.1467C4.53634 10.7498 2.7261 12 0.5 12V13C3.06649 13 5.11696 11.5836 5.84611 10.8533L5.13845 10.1467ZM13.0869 2.13804C12.4557 1.43989 11.5417 1 10.5256 1V2C11.247 2 11.8953 2.3112 12.3452 2.80872L13.0869 2.13804ZM12.7909 2.96774C13.5515 2.85256 14.2935 2.45317 14.8501 1.8344L14.1067 1.1656C13.6988 1.61897 13.1639 1.89985 12.6412 1.97902L12.7909 2.96774ZM0.222353 12.9158C1.86304 14.0113 3.58337 14 5.18026 14V13C3.55033 13 2.13233 12.9887 0.777647 12.0842L0.222353 12.9158Z" fill="black"/></svg>

<svg xmlns="http://www.w3.org/2000/svg" viewBox="0 0 15 15" fill="none"><path d="M14.478 1.5l.5-.033a.5.5 0 00-.871-.301l.371.334zm-.498 2.959a.5.5 0 10-1 0h1zm-6.49.082h-.5.5zm0 .959h.5-.5zm-6.99 7V12a.5.5 0 00-.278.916L.5 12.5zm.998-11l.469-.175a.5.5 0 00-.916-.048l.447.223zm3.994 9l.354.353a.5.5 0 00-.195-.827l-.159.474zm7.224-8.027l-.37.336.18.199.265-.04-.075-.495zm1.264-.94c.051.778.003 1.25-.123 1.606-.122.345-.336.629-.723 1l.692.722c.438-.42.776-.832.974-1.388.193-.546.232-1.178.177-2.006l-.998.066zm0 3.654V4.46h-1v.728h1zm-6.99-.646V5.5h1v-.959h-1zm0 .959V6h1v-.5h-1zM10.525 1a3.539 3.539 0 00-3.537 3.541h1A2.539 2.539 0 0110.526 2V1zm2.454 4.187C12.98 9.503 9.487 13 5.18 13v1c4.86 0 8.8-3.946 8.8-8.813h-1zM1.03 1.675C1.574 3.127 3.614 6 7.49 6V5C4.174 5 2.421 2.54 1.966 1.325l-.937.35zm.021-.398C.004 3.373-.157 5.407.604 7.139c.759 1.727 2.392 3.055 4.73 3.835l.317-.948c-2.155-.72-3.518-1.892-4.132-3.29-.612-1.393-.523-3.11.427-5.013l-.895-.446zm4.087 8.87C4.536 10.75 2.726 12 .5 12v1c2.566 0 4.617-1.416 5.346-2.147l-.708-.706zm7.949-8.009A3.445 3.445 0 0010.526 1v1c.721 0 1.37.311 1.82.809l.74-.671zm-.296.83a3.513 3.513 0 002.06-1.134l-.744-.668a2.514 2.514 0 01-1.466.813l.15.989zM.222 12.916C1.863 14.01 3.583 14 5.18 14v-1c-1.63 0-3.048-.011-4.402-.916l-.556.832z" fill="currentColor"/></svg>
